X:1
T:Title
%%score { ( 1 3 4 ) | ( 2 5 ) }
L:1/8
M:4/4
K:D
V:1 treble nm="Grand Piano"
V:3 treble 
V:4 treble 
V:2 bass 
V:5 bass 
V:1
 z4 z2[Q:1/4=80] [DF][EG] | [FA]>[FA] [=F^G][^FA] [Fd][FA][D=G][=CF] | %2
 [B,F]>[B,E] [B,^D][B,E] [=DB]2 BB | B>A EF GAcB | [GB]>[FA] [=F^G][^FA] [DF]2 [DF][E=G] | %5
 [FA]>[FA] [=F^G][^FA] [Fd][FA][D=G][=CF] | [B,F]>[B,E] [B,^D][B,E] [=DB]2 cB | BAdB AF[CF][CE] | %8
[M:3/4] D6 |[M:1/4] Ad |[M:4/4] z2 [Ac]4 z2 | [GB]>[FA] z D D2 [Fd][Ac] | %12
 B>B B[AB] [^GB][GB][Gc][Gd] | e6 fe | [Ge]>[Fd] [Fc][Fd] [DF]2 [Fd][Ac] | %15
[M:9/8] [Ac]>B^A B E2- EDE |[M:4/4] FAdB AF[CF][CE] |[M:3/4] D6 |] %18
V:2
 z4 z2 [D,A,][D,A,] | [D,D]>[D,D] [D,D][D,D] [D,A,][D,D][D,B,][D,A,] | %2
 [G,,G,]>[G,,G,] [G,,G,][G,,G,] [G,,G,]2[K:treble] [G,DG][G,CG] | %3
 [A,CG]>[A,CG] [A,C][A,D] [A,E][A,F][A,A][A,CG] | [D,D]>[D,D] [D,D][D,D] [D,A,]2 [D,A,][D,A,] | %5
 [D,D]>[D,D] [D,D][D,D] [D,A,][D,D][D,B,][D,A,] | %6
 [G,,G,]>[G,,G,] [G,,F,][G,,G,] [G,,G,]2[K:treble] [G,DG][^G,D=F] | %7
 [A,DF][A,DF][A,FA][A,DF] [A,DF][K:bass][A,D][A,,A,][A,,G,] |[M:3/4] [D,F,]6 | %9
[M:1/4][K:treble] FF |[M:4/4][K:bass] [E,A,]>[E,A,] [E,A,]E, z G [A,,A,]2 | %11
 [D,A,]>[D,A,] [D,D]D, D,2 [D,A,][F,D] | %12
 [G,DG]>[G,DG] [G,DG][K:bass][F,^D] [E,E][E,=D][E,C][E,B,] | [A,CG]6 [A,CA][A,G] | %14
 [D,A,]>[D,A,] [D,A,][D,A,] [D,A,]2 [D,A,][D,D] | %15
[M:9/8][K:treble] [G,D]>[G,DG][G,CG] [G,D] [G,B,D]2- [G,B,D][^G,B,][G,B,D] | %16
[M:4/4] [A,D][A,DF][A,FA][A,DF] [A,DF][K:bass][A,D][A,,A,][A,,G,] |[M:3/4] [D,F,]6 |] %18
V:3
 x8 | x8 | x8 | x8 | x8 | x8 | x8 | x8 |[M:3/4] x6 |[M:1/4] x2 | %10
[M:4/4] [Gd]>[Gc] z A, z e[GB][Gc] | z2 [FA]4 z2 | x8 | x8 | x8 |[M:9/8] x9 |[M:4/4] x8 | %17
[M:3/4] x6 |] %18
V:4
 x8 | x8 | x8 | x8 | x8 | x8 | x8 | x8 |[M:3/4] x6 |[M:1/4] x2 |[M:4/4] z4 A,2 z2 | x8 | x8 | x8 | %14
 x8 |[M:9/8] x9 |[M:4/4] x8 |[M:3/4] x6 |] %18
V:5
 x8 | x8 | x6[K:treble] x2 | x8 | x8 | x8 | x6[K:treble] x2 | x5[K:bass] x3 |[M:3/4] x6 | %9
[M:1/4][K:treble] x2 |[M:4/4][K:bass] z4 E,2 z2 | x8 | x3[K:bass] x5 | x8 | x8 | %15
[M:9/8][K:treble] x9 |[M:4/4] x5[K:bass] x3 |[M:3/4] x6 |] %18

